img/AE.svg

<svg width="35" height="15" viewBox="0 0 35 15" fill="none" xmlns="http://www.w3.org/2000/svg">
<mask id="mask0" mask-type="alpha" maskUnits="userSpaceOnUse" x="0" y="0" width="35" height="15">
<path d="M0.699585 0.736572V14.781H34.9787V0.736572H0.699585Z" fill="white"/>
</mask>
<g mask="url(#mask0)">
<path d="M30.7776 6.73129H33.3514V0.736572H30.6074V1.69487L30.0012 0.736572H27.6081V1.95042L27.0763 0.736572H23.1198C22.9284 0.736572 22.7476 0.74722 22.5667 0.779163C22.4178 0.800459 22.269 0.832402 22.1201 0.885641C22.0031 0.917585 21.8967 0.960176 21.7903 1.01342C21.6627 1.06665 21.5457 1.14119 21.4394 1.21572V1.01342V0.74722H8.52752L8.14463 1.78006L7.78301 0.736572H4.77309V1.96107L4.23066 0.736572H1.7738L0.699585 3.29205V6.18825V6.72064H2.43322L2.7523 5.85817H3.35853L3.68824 6.72064H17.0468V5.84752L17.7168 6.72064H21.4074V6.52898V6.28408C21.5032 6.34797 21.5989 6.4012 21.7053 6.4438C21.801 6.48639 21.9073 6.52898 22.0137 6.56092C22.1413 6.60351 22.2689 6.63546 22.4072 6.65675C22.6199 6.69934 22.8326 6.70999 23.0347 6.70999H25.247L25.566 5.84752H26.1723L26.502 6.70999H30.2032V5.81558L30.7776 6.73129ZM34.9787 14.419V8.79696H34.6809H13.7178L13.1754 9.5636L12.6436 8.79696H6.528V14.7917H12.6223L13.1541 14.0144L13.7072 14.7917H17.5254V13.4926H17.4829C17.9615 13.4926 18.3869 13.4075 18.7698 13.269V14.7917H21.4287V13.9186L22.0988 14.7917H33.6386C33.9683 14.7917 34.2767 14.7384 34.5639 14.632C34.6915 14.5681 34.8404 14.5042 34.9787 14.419Z" fill="#F7F7F7"/>
<mask id="mask1" mask-type="alpha" maskUnits="userSpaceOnUse" x="7" y="9" width="28" height="5">
<path d="M35 13.8145V9.76831H7.45331V13.8145H35Z" fill="white"/>
</mask>
<g mask="url(#mask1)">
<path d="M33.6386 13.0052H31.5646V13.8145H33.6067C34.4788 13.8145 35 13.2821 35 12.5261C35 11.802 34.532 11.3868 33.745 11.3868H32.809C32.575 11.3868 32.4155 11.2377 32.4155 11.0035C32.4155 10.7586 32.575 10.5988 32.809 10.5988H34.5639L34.9255 9.77896H32.8409C31.9688 9.77896 31.4476 10.3113 31.4476 11.0354C31.4476 11.7807 31.9369 12.2067 32.7027 12.2067H33.628C33.862 12.2067 34.0215 12.3557 34.0215 12.6006C34.0321 12.8349 33.8726 13.0052 33.6386 13.0052ZM29.7991 13.0052H27.7251V13.8145H29.7672C30.6393 13.8145 31.1605 13.2821 31.1605 12.5261C31.1605 11.802 30.6925 11.3868 29.9055 11.3868H28.9695C28.7355 11.3868 28.576 11.2377 28.576 11.0035C28.576 10.7586 28.7355 10.5988 28.9695 10.5988H30.7244L31.086 9.77896H29.0014C28.1293 9.77896 27.6081 10.3113 27.6081 11.0354C27.6081 11.7807 28.0974 12.2067 28.8631 12.2067H29.7885C30.0224 12.2067 30.182 12.3557 30.182 12.6006C30.1926 12.8349 30.0224 13.0052 29.7991 13.0052ZM27.1402 10.5882V9.76831H23.9069V13.8145H27.1402V12.9946H24.8747V12.1854H27.087V11.3761H24.8747V10.5882H27.1402ZM21.7265 10.5882C22.0775 10.5882 22.2583 10.8118 22.2583 11.0886C22.2583 11.3655 22.0775 11.5891 21.7265 11.5891H20.5885V10.5882H21.7265ZM20.5885 12.3557H21.0458L22.2477 13.8145H23.4495L22.1094 12.3238C22.8007 12.196 23.2049 11.6956 23.2049 11.0567C23.2049 10.3007 22.6731 9.77896 21.8116 9.77896H19.6206V13.8251H20.5885V12.3557ZM18.121 11.1206C18.121 11.3974 17.9508 11.621 17.6105 11.621H16.4512V10.6308H17.6105C17.9402 10.6308 18.121 10.8437 18.121 11.1206ZM15.4727 9.76831V13.8145H16.4405V12.4835H17.653C18.5358 12.4835 19.0889 11.9085 19.0889 11.1312C19.0889 10.3326 18.5571 9.77896 17.6956 9.77896H15.4727V9.76831ZM14.0475 13.8145H15.26L13.6433 11.7807L15.2493 9.77896H14.0688L13.0796 11.0567L12.0905 9.77896H10.878L12.4947 11.802L10.8887 13.8251H12.0692L13.0584 12.5261L14.0475 13.8145ZM10.6866 10.5882V9.76831H7.45331V13.8145H10.6866V12.9946H8.42117V12.1854H10.6334V11.3761H8.42117V10.5882H10.6866Z" fill="#006FCF"/>
</g>
<path d="M29.4268 3.33443L29.4162 3.00435L29.6183 3.33443L31.1604 5.75148H32.2878V1.70532H31.3412V4.04784L31.3519 4.34597L31.1711 4.04784L29.6608 1.70532H28.4696V5.75148H29.4162V3.33443H29.4268ZM25.566 3.21731L25.8638 2.46132L26.1616 3.21731L26.5232 4.11172H25.2257L25.566 3.21731ZM27.172 5.75148H28.2569L26.5339 1.70532H25.2576L23.5239 5.75148H24.5556L24.896 4.88901H26.821L27.172 5.75148ZM22.939 5.75148H22.9922L23.3857 4.88901H23.0879C22.4285 4.88901 22.0349 4.47375 22.0349 3.76035V3.69646C22.0349 3.05759 22.3859 2.57844 23.0772 2.57844H24.1302V1.70532H23.0028C21.7584 1.70532 21.0777 2.5465 21.0777 3.69646V3.77099C21.0777 4.96355 21.7797 5.74084 22.939 5.75148ZM19.493 5.75148H20.4608V3.9733V1.70532H19.493V3.94136V5.75148ZM17.4615 2.53585C17.8125 2.53585 17.9933 2.75945 17.9933 3.0363C17.9933 3.31314 17.8125 3.53674 17.4615 3.53674H16.3235V2.53585H17.4615ZM16.3235 4.29274H16.7809L17.9827 5.75148H19.1846L17.8444 4.26079C18.5358 4.13302 18.9399 3.63257 18.9399 2.99371C18.9399 2.23771 18.4081 1.71597 17.5466 1.71597H15.3557V5.76213H16.3235V4.29274ZM14.6431 2.5252V1.70532H11.4098V5.75148H14.6431V4.92096H12.3777V4.12237H14.5899V3.31314H12.3777V2.5252H14.6431ZM6.61305 2.99371L6.59178 1.89698L7.70854 5.75148H8.58067L9.69743 1.91828L9.67616 2.98306V5.75148H10.6121V1.70532H8.89974L8.13397 4.56958L7.35756 1.70532H5.65583V5.75148H6.59178V2.99371H6.61305ZM2.75227 3.21731L3.05006 2.46132L3.34787 3.21731L3.70949 4.11172H2.40128L2.75227 3.21731ZM4.35827 5.75148H5.45375L3.73076 1.70532H2.45446L0.720825 5.75148H1.7525L2.09284 4.88901H4.01792L4.35827 5.75148Z" fill="#006FCF"/>
</g>
</svg>

<svg width="35" height="15" fill="none" xmlns="http://www.w3.org/2000/svg"><mask id="a" maskUnits="userSpaceOnUse" x="0" y="0" width="35" height="15"><path d="M.7.737V14.78h34.279V.737H.699z" fill="#fff"/></mask><g mask="url(#a)"><path d="M30.778 6.731h2.573V.737h-2.744v.958l-.606-.958h-2.393V1.95L27.076.737H23.12c-.192 0-.372.01-.553.042a2.267 2.267 0 00-.447.107 1.765 1.765 0 00-.33.127 1.885 1.885 0 00-.35.203V.747H8.527L8.145 1.78 7.783.737h-3.01V1.96L4.231.737H1.774L.7 3.292v3.429h1.733l.32-.863h.606l.33.863h13.358v-.873l.67.873h3.69v-.437c.096.064.192.117.298.16.096.042.202.085.309.117.127.043.255.074.393.096.213.042.426.053.628.053h2.212l.319-.862h.606l.33.862h3.701v-.894l.575.915zm4.2 7.688V8.797h-21.26l-.543.767-.531-.767H6.528v5.995h6.094l.532-.778.553.778h3.818v-1.3h-.042c.479 0 .904-.085 1.287-.223v1.523h2.659v-.873l.67.873h11.54c.33 0 .638-.054.925-.16.127-.064.276-.128.415-.213z" fill="#F7F7F7"/><mask id="b" maskUnits="userSpaceOnUse" x="7" y="9" width="28" height="5"><path d="M35 13.815V9.768H7.453v4.046H35z" fill="#fff"/></mask><g mask="url(#b)"><path d="M33.639 13.005h-2.074v.81h2.042c.872 0 1.393-.533 1.393-1.289 0-.724-.468-1.14-1.255-1.14h-.936c-.234 0-.393-.148-.393-.382 0-.245.159-.405.393-.405h1.755l.361-.82h-2.084c-.872 0-1.393.532-1.393 1.256 0 .746.489 1.172 1.255 1.172h.925c.234 0 .394.149.394.394.01.234-.15.404-.383.404zm-3.84 0h-2.074v.81h2.042c.872 0 1.393-.533 1.393-1.289 0-.724-.468-1.14-1.255-1.14h-.936c-.234 0-.393-.148-.393-.382 0-.245.16-.405.393-.405h1.755l.362-.82h-2.085c-.872 0-1.393.532-1.393 1.256 0 .746.49 1.172 1.255 1.172h.925c.234 0 .394.149.394.394a.375.375 0 01-.383.404zm-2.659-2.417v-.82h-3.233v4.046h3.233v-.82h-2.265v-.809h2.212v-.809h-2.212v-.788h2.265zm-5.413 0c.35 0 .531.224.531.5 0 .278-.18.501-.531.501h-1.139v-1h1.139zm-1.139 1.768h.458l1.202 1.459h1.201l-1.34-1.491c.692-.128 1.096-.628 1.096-1.267 0-.756-.532-1.278-1.393-1.278H19.62v4.046h.968v-1.47zm-2.467-1.235c0 .276-.17.5-.51.5h-1.16v-.99h1.16c.33 0 .51.213.51.49zm-2.648-1.353v4.046h.967v-1.33h1.213c.883 0 1.436-.575 1.436-1.353 0-.798-.532-1.352-1.393-1.352h-2.223v-.01zm-1.426 4.046h1.213l-1.617-2.033 1.606-2.002h-1.18l-.99 1.278-.989-1.278h-1.212l1.617 2.023-1.606 2.023h1.18l.99-1.299.989 1.289zm-3.36-3.226v-.82H7.453v4.046h3.234v-.82H8.42v-.809h2.212v-.809H8.421v-.788h2.266z" fill="#006FCF"/></g><path d="M29.427 3.334l-.01-.33.201.33 1.542 2.417h1.128V1.705h-.947v2.343l.01.298-.18-.298-1.51-2.343H28.47v4.046h.946V3.334h.01zm-3.861-.117l.298-.756.298.756.361.895h-1.297l.34-.895zm1.606 2.534h1.085l-1.723-4.046h-1.276l-1.734 4.046h1.032l.34-.862h1.925l.351.862zm-4.233 0h.053l.394-.862h-.298c-.66 0-1.053-.415-1.053-1.129v-.064c0-.638.35-1.118 1.042-1.118h1.053v-.873h-1.127c-1.245 0-1.925.841-1.925 1.991v.075c0 1.193.702 1.97 1.861 1.98zm-3.446 0h.968V1.705h-.968v4.046zm-2.031-3.215c.35 0 .531.223.531.5s-.18.5-.531.5h-1.139v-1h1.139zm-1.139 1.757h.458l1.202 1.458h1.202l-1.34-1.49c.69-.128 1.095-.628 1.095-1.267 0-.756-.532-1.278-1.393-1.278h-2.191v4.046h.967v-1.47zm-1.68-1.768v-.82H11.41v4.046h3.233v-.83h-2.265v-.799h2.212v-.809h-2.212v-.788h2.265zm-8.03.469l-.021-1.097 1.117 3.854h.872l1.116-3.833-.02 1.065v2.768h.935V1.705H8.9L8.134 4.57l-.776-2.865H5.656v4.046h.936V2.994h.021zm-3.86.223l.297-.756.298.756.361.895H2.401l.351-.895zm1.605 2.534h1.096L3.73 1.705H2.454L.721 5.751h1.031l.34-.862h1.926l.34.862z" fill="#006FCF"/></g></svg>
